static/images/skills/ruby.svg

<svg xmlns="http://www.w3.org/2000/svg" viewBox="0 0 48 48" width="144px" height="144px">
    <path fill="#bf2336" d="M42,14l-2,26l-26,2L42,14z"/>
    <path fill="#b31523" d="M28,28l12,12l2-26L28,28z"/>
    <path fill="#cf1928" d="M15.8,15.8C6.9,24.6,3.4,35.4,8,40s15.4,1.1,24.2-7.7S44.6,12.6,40,8S24.6,6.9,15.8,15.8L15.8,15.8z"/>
    <path fill="#d9414f" d="M10,17l7-7l8-4l6,4l-3,9l-9,8l-9,3l-4-6L10,17z"/>
    <path fill="#eb6773" d="M31,10l-6-4h11L31,10z M42,15l-11-5l-3,9L42,15z M19,27l13.2,5.2L28,19L19,27z M10,30l4,12l5-15L10,30z M6,24	v11l4-5L6,24z"/>
</svg>

<svg xmlns="http://www.w3.org/2000/svg"  viewBox="0 0 48 48" width="48px" height="48px"><path fill="#9B1010" d="M42 14L40 40 14 42z"/><path fill="#B71C1C" d="M28 28L40 40 42 14z"/><path fill="#C62828" d="M24 12.336A22.621 11.664 0 1 0 24 35.664A22.621 11.664 0 1 0 24 12.336Z" transform="rotate(-45.001 24 24)"/><path fill="#E53935" d="M10 17L17 10 25 6 31 10 28 19 19 27 10 30 6 24z"/><path fill="#FF5252" d="M31,10l-6-4h11L31,10z M42,15l-11-5l-3,9L42,15z M19,27l13.235,5.235L28,19L19,27z M10,30l4,12l5-15L10,30z M6,24v11l4-5L6,24z"/></svg>
